X: 186
T: Bai Yueer
L: 1/16
M: 2/4
K: G
B2B4B2 [I:setbarnb 1]| 
d2 B A B d B A | 
G4B2 d2 | 
B2 B A G D E D | 
B,8 | 
B2 B2 B d B A | 
B2 E DB,4 | 
B2 B2 B d B A | 
B2 E DB,4 | 
B2 E DB,4 | 
B2B4d d | 
B d B A2< G2 E | 
B2 B B B2 E2 | 
G2 G E D2 D2- | 
D4z4 |]

@@@ Tune index: 9060
